static/img/menus/ico-cur-position.svg

<svg width="16" height="16" viewBox="0 0 16 16" fill="none" xmlns="http://www.w3.org/2000/svg">
<g clip-path="url(#clip0_1713_11)">
<path d="M7.99996 5.33329C6.52663 5.33329 5.33329 6.52663 5.33329 7.99996C5.33329 9.47329 6.52663 10.6666 7.99996 10.6666C9.47329 10.6666 10.6666 9.47329 10.6666 7.99996C10.6666 6.52663 9.47329 5.33329 7.99996 5.33329ZM13.96 7.33329C13.6533 4.55329 11.4466 2.34663 8.66663 2.03996V1.33329C8.66663 0.966626 8.36663 0.666626 7.99996 0.666626C7.63329 0.666626 7.33329 0.966626 7.33329 1.33329V2.03996C4.55329 2.34663 2.34663 4.55329 2.03996 7.33329H1.33329C0.966626 7.33329 0.666626 7.63329 0.666626 7.99996C0.666626 8.36663 0.966626 8.66663 1.33329 8.66663H2.03996C2.34663 11.4466 4.55329 13.6533 7.33329 13.96V14.6666C7.33329 15.0333 7.63329 15.3333 7.99996 15.3333C8.36663 15.3333 8.66663 15.0333 8.66663 14.6666V13.96C11.4466 13.6533 13.6533 11.4466 13.96 8.66663H14.6666C15.0333 8.66663 15.3333 8.36663 15.3333 7.99996C15.3333 7.63329 15.0333 7.33329 14.6666 7.33329H13.96ZM7.99996 12.6666C5.41996 12.6666 3.33329 10.58 3.33329 7.99996C3.33329 5.41996 5.41996 3.33329 7.99996 3.33329C10.58 3.33329 12.6666 5.41996 12.6666 7.99996C12.6666 10.58 10.58 12.6666 7.99996 12.6666Z" fill="currentColor"/>
</g>
<defs>
<clipPath id="clip0_1713_11">
<rect width="16" height="16" fill="white"/>
</clipPath>
</defs>
</svg>

<svg xmlns="http://www.w3.org/2000/svg" width="16" height="16" fill="none" viewBox="0 0 16 16"><g clip-path="url(#a)"><path fill="currentColor" d="M8 5.333a2.666 2.666 0 1 0 0 5.334 2.666 2.666 0 1 0 0-5.334m5.96 2A5.996 5.996 0 0 0 8.667 2.04v-.707c0-.366-.3-.666-.667-.666s-.667.3-.667.666v.707A5.996 5.996 0 0 0 2.04 7.333h-.707c-.366 0-.666.3-.666.667s.3.667.666.667h.707a5.996 5.996 0 0 0 5.293 5.293v.707c0 .366.3.666.667.666s.667-.3.667-.666v-.707a5.996 5.996 0 0 0 5.293-5.293h.707c.366 0 .666-.3.666-.667s-.3-.667-.666-.667zM8 12.667A4.663 4.663 0 0 1 3.333 8 4.663 4.663 0 0 1 8 3.333 4.663 4.663 0 0 1 12.667 8 4.663 4.663 0 0 1 8 12.667"/></g><defs><clipPath id="a"><path fill="#fff" d="M0 0h16v16H0z"/></clipPath></defs></svg>
